X: 40130
T: Tie The Ribbons
R: reel
M: 4/4
K: Edorian
BE ~E2 G2 AG|FDAD BDAD|GBEF GABc|1 d2 df ~e2 dc:|2 d2 df ~e3f||
g2 gf gbag|fddc dfaf|g2 ef gbaf|gfed Bdef|
g2 gf gbag|fddc dfa2|bgaf gfed|Bgfg ~e2dc||

